X: 3230
T: Begin Again
R: jig
M: 6/8
K: Dmajor
E3 EFG|FED E2F|GFG BAG|FdB AFA|
Bee e2f|edB d2A|B3 Bcd|1 AFD AFD:|2 AFD DEF||
GDB, G,B,D|GBd AFD|AFD DE/F/G|AB=c BAF|
GDB, A,3|A,B,D EF/G/A|Bed BAF|1 GED E2F:|2 GED E(3Bcd||
e3 edB|e3 efg|fdc d2B|AFA def|
[1efe edB|BAB d3|B3 Bcd|AFD E(3Bcd:|
[2e2B d2A|BAF G3|B3 Bcd|Ad/c/B AGF||

